/* XPM */
static char * shade_toggled_prelight_xpm[] = {
"24 26 4 1",
" 	c None",
".	c #1a1a1a",
"+	c #e5e5e5",
"@	c #f96900",
"@@@@@@@@@@@@@@@@@@@@@@@@",
"........................",
"........................",
"........................",
"........................",
"........................",
"........................",
"........................",
"........................",
"...........++...........",
"...........++...........",
"...........++...........",
".......+++.++.+++.......",
"........++++++++........",
".........++++++.........",
"..........++++..........",
"...........++...........",
"........................",
"........................",
"........................",
"........................",
"........................",
"........................",
"........................",
"........................",
"........................"};
